X:732
T:Boys on the Hilltop, The
O:england
R:reel
D:Paraic MacMathuna: Hives of Honeyed Sound
D:Shaskeen: 25th Silver Jubilee Collection
M:C|
K:Ador
~A3c BGAG|EGGF G2AG|EA~A2 BABd|egdB BAdB|
~A3c BGAG|EGGF G2AB|cA~A2 ~B3c|dBGA BAAG||
A2 (3Bcd eBdB|GBdB defg|a2fd egdB|GBdB BA~A2|
a2fd egdB|GBdB defg|a2fd edef|g2af gedB||
